icons/svg/shields/h_astronomical_observatory_shield.svg

<?xml version="1.0" encoding="UTF-8" standalone="no"?>
<!-- Created with Inkscape (http://www.inkscape.org/) -->

<svg
   xmlns:dc="http://purl.org/dc/elements/1.1/"
   xmlns:cc="http://creativecommons.org/ns#"
   xmlns:rdf="http://www.w3.org/1999/02/22-rdf-syntax-ns#"
   xmlns:svg="http://www.w3.org/2000/svg"
   xmlns="http://www.w3.org/2000/svg"
   xmlns:sodipodi="http://sodipodi.sourceforge.net/DTD/sodipodi-0.dtd"
   xmlns:inkscape="http://www.inkscape.org/namespaces/inkscape"
   version="1.0"
   width="16"
   height="16"
   id="svg2"
   sodipodi:version="0.32"
   inkscape:version="0.91 r13725"
   sodipodi:docname="h_astronomical_observatory_shield.svg"
   inkscape:output_extension="org.inkscape.output.svg.inkscape">
  <metadata
     id="metadata2975">
    <rdf:RDF>
      <cc:Work
         rdf:about="">
        <dc:format>image/svg+xml</dc:format>
        <dc:type
           rdf:resource="http://purl.org/dc/dcmitype/StillImage" />
        <cc:license
           rdf:resource="http://web.resource.org/cc/PublicDomain" />
        <dc:language>en</dc:language>
        <dc:title />
      </cc:Work>
    </rdf:RDF>
  </metadata>
  <sodipodi:namedview
     inkscape:window-height="1006"
     inkscape:window-width="1920"
     inkscape:pageshadow="2"
     inkscape:pageopacity="0.0"
     guidetolerance="10.0"
     gridtolerance="10.0"
     objecttolerance="10.0"
     borderopacity="1.0"
     bordercolor="#666666"
     pagecolor="#ffffff"
     id="base"
     inkscape:zoom="32"
     inkscape:cx="4.4393002"
     inkscape:cy="7.6856564"
     inkscape:window-x="1920"
     inkscape:window-y="0"
     inkscape:current-layer="svg2"
     showgrid="false"
     inkscape:window-maximized="1" />
  <defs
     id="defs4">
    <inkscape:perspective
       sodipodi:type="inkscape:persp3d"
       inkscape:vp_x="0 : 290 : 1"
       inkscape:vp_y="0 : 1000 : 0"
       inkscape:vp_z="580 : 290 : 1"
       inkscape:persp3d-origin="290 : 193.33333 : 1"
       id="perspective2441" />
    <inkscape:perspective
       id="perspective3452"
       inkscape:persp3d-origin="30 : 20 : 1"
       inkscape:vp_z="60 : 30 : 1"
       inkscape:vp_y="0 : 1000 : 0"
       inkscape:vp_x="0 : 30 : 1"
       sodipodi:type="inkscape:persp3d" />
    <symbol
       viewBox="244.5 110 489 219.9"
       id="symbol-university">
      <path
         id="path4460"
         d="m 79,43 57,119 c 0,0 21,-96 104,-96 83,0 124,106 124,106 L 407,39 489,22 0,17 79,43 z"
         inkscape:connector-curvature="0" />
      <path
         id="path4462"
         d="M 94,176 73,215"
         inkscape:connector-curvature="0"
         style="fill:none;stroke:#000000;stroke-width:20" />
      <path
         id="path4464"
         d="M 300,19 C 300,29.5 277.4,38 249.5,38 221.6,38 199,29.5 199,19 199,8.5 221.6,0 249.5,0 277.4,0 300,8.5 300,19 z"
         inkscape:connector-curvature="0" />
      <path
         id="path4466"
         d="M 112,216 96,178 64,88 C 64,88 55,80 60,53 65,26 76,29 76,29"
         ill="none"
         inkscape:connector-curvature="0"
         style="stroke:#000000;stroke-width:20" />
    </symbol>
    <inkscape:perspective
       id="perspective4471"
       inkscape:persp3d-origin="372.04724 : 350.78739 : 1"
       inkscape:vp_z="744.09448 : 526.18109 : 1"
       inkscape:vp_y="0 : 1000 : 0"
       inkscape:vp_x="0 : 526.18109 : 1"
       sodipodi:type="inkscape:persp3d" />
    <inkscape:perspective
       id="perspective4668"
       inkscape:persp3d-origin="6 : 4 : 1"
       inkscape:vp_z="12 : 6 : 1"
       inkscape:vp_y="0 : 1000 : 0"
       inkscape:vp_x="0 : 6 : 1"
       sodipodi:type="inkscape:persp3d" />
  </defs>
  <path
     style="color:#000000;display:inline;overflow:visible;visibility:visible;opacity:0.81199999;fill:#ebe7e4;fill-opacity:1;fill-rule:nonzero;stroke:none;stroke-width:1.01682901;marker:none;enable-background:accumulate"
     d="m 12.434218,1.0987743 c -0.326247,0.034454 -0.625448,0.2588551 -0.749875,0.5624062 l -0.241031,0.5624063 -0.589187,0.053562 c -0.72054,0.046421 -1.0842047,1.1374138 -0.535625,1.606875 l 0.482062,0.4017187 -0.02678,0.053562 C 10.029133,3.6392996 9.0837351,3.0930918 8.0153122,2.893118 7.3780971,2.7752345 7.0929782,3.0197122 6.8082527,3.3959732 6.6172989,3.4060853 6.7307638,3.4669806 6.488781,3.214493 6.2639028,2.9870671 5.9142033,2.8916945 5.6049997,2.9734618 3.3272628,3.4910432 1.561031,5.3554991 1.561031,7.6601805 c 0.00223,0.3638055 0.00457,0.5314691 0,0.857 l 0,2.9727185 0,0.133907 c -0.00209,0.03567 -0.00209,0.07146 0,0.107125 0.1396939,1.248097 1.2134611,1.987341 2.4103125,2.437093 0.2312128,0.08964 0.4991456,0.07972 0.7230937,-0.02678 0.1310954,0.189937 0.3366588,0.326979 0.5624063,0.374938 0.5246745,0.0959 1.0757698,0.133906 1.6604375,0.133906 1.3062366,0 2.4928354,-0.241633 3.454781,-0.696313 0.961946,-0.454679 1.80932,-1.160262 1.92825,-2.222843 0.0021,-0.03567 0.0021,-0.07146 0,-0.107125 l 0,-0.133907 0,-2.9727185 c 7.18e-4,-0.4447696 -3.81e-4,-0.5668418 0,-0.857 0,-0.6156851 -0.118919,-1.2032546 -0.348156,-1.7407812 0.01814,-0.00834 0.036,-0.017273 0.05356,-0.026781 l 0.535625,-0.321375 0.535625,0.321375 c 0.611574,0.373227 1.530857,-0.2937042 1.365844,-0.9909062 L 14.282125,4.285743 14.764187,3.8840243 c 0.54858,-0.4694612 0.184915,-1.5604537 -0.535625,-1.606875 L 13.639375,2.2235868 13.398343,1.6611805 C 13.247647,1.2904329 12.831119,1.0474585 12.434218,1.0987743 Z"
     id="path3955"
     inkscape:connector-curvature="0"
     sodipodi:nodetypes="cccccccccccccccccccsscccccccccccccccc" />
</svg>

<svg width="16" height="16" viewBox="0 0 16 16" fill="none" xmlns="http://www.w3.org/2000/svg">
<path opacity="0.812" d="M12.4342 1.09878C12.108 1.13323 11.8088 1.35763 11.6843 1.66118L11.4433 2.22359L10.8541 2.27715C10.1336 2.32357 9.76992 3.41456 10.3185 3.88402L10.8006 4.28574L10.7738 4.33931C10.0291 3.6393 9.08374 3.09309 8.01531 2.89312C7.3781 2.77524 7.09298 3.01971 6.80825 3.39597C6.6173 3.40609 6.73076 3.46698 6.48878 3.21449C6.2639 2.98707 5.9142 2.8917 5.605 2.97346C3.32726 3.49104 1.56103 5.3555 1.56103 7.66018C1.56326 8.02399 1.5656 8.19165 1.56103 8.51718V11.4899V11.6238C1.55894 11.6595 1.55894 11.6953 1.56103 11.7309C1.70072 12.979 2.77449 13.7183 3.97134 14.168C4.20256 14.2577 4.47049 14.2477 4.69444 14.1412C4.82553 14.3312 5.0311 14.4682 5.25684 14.5162C5.78152 14.6121 6.33261 14.6501 6.91728 14.6501C8.22352 14.6501 9.41012 14.4085 10.3721 13.9538C11.334 13.4991 12.1814 12.7935 12.3003 11.7309C12.3024 11.6953 12.3024 11.6595 12.3003 11.6238V11.4899V8.51718C12.301 8.07241 12.2999 7.95034 12.3003 7.66018C12.3003 7.0445 12.1814 6.45693 11.9522 5.9194C11.9703 5.91106 11.9882 5.90213 12.0057 5.89262L12.5413 5.57125L13.077 5.89262C13.6885 6.26585 14.6078 5.59892 14.4428 4.90171L14.2821 4.28574L14.7642 3.88403C15.3128 3.41456 14.9491 2.32357 14.2286 2.27715L13.6394 2.22359L13.3983 1.66118C13.2476 1.29043 12.8311 1.04746 12.4342 1.09878Z" fill="#EBE7E4"/>
</svg>
